svgs/light/ram.svg

<svg xmlns="http://www.w3.org/2000/svg" viewBox="0 0 640 512"><!--! Font Awesome Pro 6.4.0 by @fontawesome - https://fontawesome.com License - https://fontawesome.com/license (Commercial License) Copyright 2023 Fonticons, Inc. --><path d="M336 56c0-30.9 25.1-56 56-56s56 25.1 56 56V66.8c7.7-1.8 15.7-2.8 24-2.8c14.2 0 27.7 2.8 40 8V56c0-30.9 25.1-56 56-56s56 25.1 56 56v8c0 8.8-7.2 16-16 16s-16-7.2-16-16V56c0-13.3-10.7-24-24-24s-24 10.7-24 24V93c11 10.5 19.7 23.5 25.2 37.9l47.7 31.8c7.4 4.9 9.3 14.8 4.4 22.2s-14.8 9.3-22.2 4.4L576 173.9V240c0 53-43 96-96 96H464c-53 0-96-43-96-96V179.2l-15.1 10.1c-7.4 4.9-17.3 2.9-22.2-4.4s-2.9-17.3 4.4-22.2l37.3-24.9c7.3-23.9 22.9-44.2 43.5-57.5V56c0-13.3-10.7-24-24-24s-24 10.7-24 24v8c0 8.8-7.2 16-16 16s-16-7.2-16-16V56zM304.2 69.9l.2-.2c1.6 11.3 7.9 21 16.9 27.2c-13.2 8.3-30.7 6-41.2-6c-5.9-6.8-14.5-11-24.1-11s-18.2 4.2-24.1 11c-11.3 12.9-30.6 14.6-44 4C182.4 90.6 175.6 88 168 88c-15 0-27.7 10.4-31.1 24.3c-3.9 16.1-19.6 26.6-36 24c-1.6-.2-3.2-.4-5-.4c-17.7 0-32 14.3-32 32c0 2.7 .3 5.3 .9 7.8c3.5 14.2-3 29-16 36c-10.2 5.4-17 16.1-17 28.3s6.8 22.8 17 28.3c12.9 6.9 19.5 21.7 16 36c-.6 2.5-.9 5.1-.9 7.8c0 17.7 14.3 32 32 32c1.7 0 3.4-.1 5-.4c16.4-2.5 32 7.9 36 24c3.4 14 16.1 24.3 31.1 24.3c7.6 0 14.4-2.6 19.9-6.9c13.4-10.6 32.8-8.9 44 4c5.9 6.8 14.5 11 24.1 11s18.2-4.2 24.1-11c11.3-12.9 30.6-14.6 44-4c5.5 4.3 12.3 6.9 19.9 6.9c15 0 27.7-10.4 31.1-24.3c1.4-5.8 4.3-10.8 8.2-14.8c6.2 5.2 13 9.9 20.1 14l20.1 5L397.6 475.6C392.2 497 373 512 351 512H336c-26.5 0-48-21.5-48-48V423.4c-9.4 5.4-20.3 8.6-32 8.6s-22.6-3.1-32-8.6V464c0 26.5-21.5 48-48 48H161c-22 0-41.2-15-46.6-36.4l-25-100C57.2 372.4 32 345.1 32 312c0-5.3 .7-10.5 1.9-15.5C13.7 285.7 0 264.5 0 240s13.7-45.7 33.9-56.5c-1.2-5-1.9-10.2-1.9-15.5c0-35.3 28.7-64 64-64c3.3 0 6.6 .3 9.8 .8C112.7 76.8 137.9 56 168 56c15 0 28.9 5.2 39.8 13.9C219.5 56.5 236.8 48 256 48s36.5 8.5 48.2 21.9zM344 424c-8.5 0-16.6-1.7-24-4.7V464c0 8.8 7.2 16 16 16h15c7.3 0 13.7-5 15.5-12.1l13.8-55.2C370 419.8 357.5 424 344 424zM131.7 412.7l13.8 55.2c1.8 7.1 8.2 12.1 15.5 12.1h15c8.8 0 16-7.2 16-16V419.3c-7.4 3-15.5 4.7-24 4.7c-13.5 0-26-4.2-36.3-11.3zM544 168c0-39.8-32.2-72-72-72c-36.1 0-66 26.6-71.2 61.2l.1 .1-.1 .1c-.5 3.5-.8 7-.8 10.6v72c0 35.3 28.7 64 64 64h16c35.3 0 64-28.7 64-64V168zm-96 8a16 16 0 1 1 0 32 16 16 0 1 1 0-32zm48 16a16 16 0 1 1 32 0 16 16 0 1 1 -32 0z"/></svg>

<svg xmlns="http://www.w3.org/2000/svg" viewBox="0 0 640 512"><!--! Font Awesome Pro 6.3.0 by @fontawesome - https://fontawesome.com License - https://fontawesome.com/license (Commercial License) Copyright 2023 Fonticons, Inc. --><path d="M432 192C432 183.2 439.2 176 448 176C456.8 176 464 183.2 464 192C464 200.8 456.8 208 448 208C439.2 208 432 200.8 432 192zM528 192C528 200.8 520.8 208 512 208C503.2 208 496 200.8 496 192C496 183.2 503.2 176 512 176C520.8 176 528 183.2 528 192zM336 56C336 25.07 361.1 0 392 0C422.9 0 448 25.07 448 56V66.78C455.7 64.96 463.7 64 472 64C486.2 64 499.7 66.84 512 71.97V56C512 25.07 537.1 0 568 0C598.9 0 624 25.07 624 56V64C624 72.84 616.8 80 608 80C599.2 80 592 72.84 592 64V56C592 42.75 581.3 32 568 32C554.7 32 544 42.75 544 56V92.95C554.1 103.5 563.7 116.4 569.2 130.9L616.9 162.7C624.2 167.6 626.2 177.5 621.3 184.9C616.4 192.2 606.5 194.2 599.1 189.3L576 173.9V240C576 293 533 336 480 336H464C410.1 336 368 293 368 240V179.2L352.9 189.3C345.5 194.2 335.6 192.2 330.7 184.9C325.8 177.5 327.8 167.6 335.1 162.7L372.5 137.8C379.7 113.9 395.4 93.56 416 80.35V56C416 42.75 405.3 32 392 32C378.7 32 368 42.75 368 56V64C368 72.84 360.8 80 352 80C343.2 80 336 72.84 336 64L336 56zM472 96C435.9 96 406 122.6 400.8 157.2L400.9 157.3L400.8 157.4C400.3 160.8 400 164.4 400 168V240C400 275.3 428.7 304 464 304H480C515.3 304 544 275.3 544 240V168C544 128.2 511.8 96 472 96zM304.2 69.88L304.4 69.71C306 80.99 312.3 90.74 321.3 96.93C308.1 105.3 290.6 102.9 280.1 90.95C274.2 84.19 265.6 80 255.1 80C246.4 80 237.8 84.19 231.9 90.95C220.6 103.8 201.3 105.6 187.9 94.93C182.4 90.58 175.6 88 167.1 88C152.1 88 140.3 98.35 136.9 112.3C132.1 128.5 117.4 138.9 100.1 136.4C99.36 136.1 97.7 136 95.1 136C78.33 136 63.1 150.3 63.1 168C63.1 170.7 64.33 173.3 64.94 175.8C68.49 190 61.9 204.8 48.97 211.7C38.8 217.2 31.1 227.8 31.1 240C31.1 252.2 38.8 262.8 48.97 268.3C61.9 275.2 68.49 289.1 64.94 304.2C64.33 306.7 63.1 309.3 63.1 312C63.1 329.7 78.33 344 95.1 344C97.7 344 99.36 343.9 100.1 343.6C117.4 341.1 132.1 351.5 136.9 367.7C140.3 381.6 152.1 392 167.1 392C175.6 392 182.4 389.4 187.9 385.1C201.3 374.4 220.6 376.2 231.9 389C237.8 395.8 246.4 400 255.1 400C265.6 400 274.2 395.8 280.1 389C291.4 376.2 310.7 374.4 324.1 385.1C329.6 389.4 336.4 392 344 392C359 392 371.7 381.6 375.1 367.7C376.5 361.9 379.4 356.9 383.3 352.9C389.5 358.1 396.2 362.8 403.4 366.8L423.5 371.9L397.6 475.6C392.2 497 373 512 351 512H336C309.5 512 287.1 490.5 287.1 464V423.4C278.6 428.9 267.7 432 255.1 432C244.3 432 233.4 428.9 223.1 423.4V464C223.1 490.5 202.5 512 175.1 512H160.1C138.1 512 119.8 497 114.4 475.6L89.42 375.7C57.17 372.4 32 345.1 32 312C32 306.7 32.66 301.5 33.89 296.5C13.72 285.7 0 264.5 0 240C0 215.5 13.72 194.3 33.89 183.5C32.66 178.5 32 173.3 32 168C32 132.7 60.65 104 96 104C99.34 104 102.6 104.3 105.8 104.8C112.7 76.77 137.9 56 168 56C183 56 196.9 61.19 207.8 69.89C219.5 56.47 236.8 48 256 48C275.2 48 292.5 56.47 304.2 69.89L304.2 69.88zM319.1 419.3V464C319.1 472.8 327.2 480 336 480H351C358.4 480 364.8 475 366.5 467.9L380.3 412.7C370 419.8 357.5 424 344 424C335.5 424 327.4 422.3 319.1 419.3H319.1zM131.7 412.7L145.5 467.9C147.2 475 153.6 480 160.1 480H175.1C184.8 480 191.1 472.8 191.1 464V419.3C184.6 422.3 176.5 424 167.1 424C154.5 424 141.1 419.8 131.7 412.7H131.7z"/></svg>
